X:14
T:The Oyster Girl
M:6/8
Q:3/8=120
R:jig
K:G
B|"G"ded B2G|"D"A2F D2D|"G"G2G BGB|"D"d2c A2B|
"G"ded B2g|"D7"f2e c2e|"G"d2B "D7"cBA|"G"G3 G2:|
|:d|"G"BcdBcd|"C"e2ce2c|"D"ABc ABc|"G"d2B d2B|
"G"ded B2g|"D7"f2e c2e|"G"d2B "D7"cBA|"G"G3 G2:|
%%newpage
